X: 23668
T: Lindisfarne
R: waltz
M: 3/4
K: Dmajor
d3e fg|a3f dA|B2 g2 e2|d3c A2|
d3e fg|a3f dA|B2 f2 e2|e3e fg|
a3f dA|B3d gf|e3d cB|A3e fg|
a3f dA|B2 g2 e2|A<d d2 c2|d4||
e3f ge|a3f dA|B2 g2 e2|d3c A2|
e3f ge|a3f dA|B2 f2 e2|e3e fg|
a3f dA|B3d gf|e3d cB|A3e fg|
a3f dA|B2 g2 e2|A<d d2 c2|d4||

